Papirus/16x16/apps/mx-tweak.svg

<svg width="16" height="16" version="1.1" xmlns="http://www.w3.org/2000/svg">
 <g transform="matrix(.2855492 0 0 .29090909 -1.1421968 -1.1636363)">
  <rect transform="matrix(0,-1,-1,0,0,0)" x="-59" y="-60.032375" width="55" height="56.032375" style="fill:#6b9fff"/>
 </g>
 <rect x="3.0000005" y="12.000001" width="12.999999" height="3.9999986" style="fill-opacity:.501961;fill:#1e2424"/>
 <rect x="6.1458138e-7" y="1.1458137e-7" width="3.9999988" height="15.999999" style="fill:#29353b"/>
 <path d="m7.0330988 3.0005105a1.0012266 1.0071496 0 1 0-0.00977 2.0135433c1.647392 0.0087 2.9652799 1.3232829 2.9882822 2.9802783a1.0012266 1.0071496 0 0 0 0 0.00586h-1.4980434l1.2500001 1.4999038 1.2500003 1.4999041 1.25-1.4999041 1.25-1.4999042h-1.5a1.0012266 1.0071496 0 0 0 0-0.035154c-0.03792-2.731716-2.2645913-4.9502231-4.9804692-4.9645272z" style="fill:#ffffff"/>
</svg>

<svg xmlns="http://www.w3.org/2000/svg" width="16" height="16" version="1.1">
 <rect style="fill:#6b9fff" width="13" height="13" x="3" y="0" rx="1" ry="1"/>
 <path style="fill:#ffffff" d="M 7.03,3.0005 A 1.0012,1.0071 0 1 0 7.0202,5.0141 C 8.6676,5.0228 9.9855,6.3373 10.009,7.9943 A 1.0012,1.0071 0 0 0 10.009,8.0002 H 8.5105 L 9.7605,9.5001 11.011,11 12.261,9.5001 13.511,8.0002 H 12.011 A 1.0012,1.0071 0 0 0 12.011,7.965 C 11.973,5.2333 9.7459,3.0148 7.03,3.0005 Z"/>
 <path style="fill:#446191" d="M 3,12 V 15 L 4,16 H 15 C 15.554,16 16,15.554 16,15 V 12 Z"/>
 <path style="fill:#29353b" d="M 1 0 C 0.446 0 0 0.446 0 1 L 0 15 C 0 15.554 0.446 16 1 16 L 4 16 L 4 0 L 1 0 z"/>
 <rect style="fill:#ffffff" width="2" height="2" x="1" y="1"/>
 <rect style="fill:#ffffff" width="2" height="2" x="1" y="4"/>
 <rect style="fill:#ffffff" width="2" height="2" x="1" y="13"/>
 <rect style="fill:#ffffff" width="2" height="2" x="13" y="13"/>
 <rect style="fill:#ffffff" width="2" height="2" x="10" y="13"/>
 <rect style="fill:#ffffff" width="2" height="2" x="7" y="13"/>
 <rect style="fill:#ffffff" width="2" height="2" x="1" y="7"/>
</svg>
